X:1179
T:"Repeal Of The Union"  (reel)   1179
C:after Sg't. Early
B:O'Neill's Music Of Ireland (The 1850) Lyon & Healy, Chicago, 1903 edition
Z:FROM O'NEILL'S TO NOTEWORTHY, FROM NOTEWORTHY TO ABC, MIDI AND .TXT BY VINCE
BRENNAN July 2003 (HTTP://WWW.SOSYOURMOM.COM)
I:abc2nwc
M:C|
L:1/8
K:D
A2 (3(FED) AD  (3(FED)| (3(GFE) (cE) dEcE|AD  (3(FED) ADFD|GEdE  (3(EEE) E2|
A2 (3(FED) AD  (3(FED)|GEcE eEcE|AE  (3(FED) A2 (3(FED)|GEcE D2D2||
Adde fdec|ABcA dBcA|Adde fdec|GEcE  (3(DDD) D2|
Adde fdec|ABcA dBcA| (3(agf)  (3(gfe)  (3(fed)  (3(cBA)|GEcE D2D2|]


